X:1
T:The Friar in the Well
M:6/8
L:1/8
K:F
 D| G2 G G3/2- A/2 B| A2 G E3| B2 B c3/2- d/2- e| d2- B G2 D| G2 G G3/2- A/2 B|\
 A2 G E3| B2 B c3/2- d/2- e| d2- B G2 G| BBc d3/2 e/2 d| ccB A2 G/2G/2|\
 F2 E F2 G| A3/2 G/2 F E3| D2 D G2 G| F3/2- E/2 F E2 E| D2- G F3/2- G/2 A|\
 G3 G2||
